src/helpers/heroicons/outline/sparkles.svg

<svg width="24" height="24" viewBox="0 0 24 24" fill="none" xmlns="http://www.w3.org/2000/svg">
<path d="M9.8132 15.9038L9 18.75L8.1868 15.9038C7.75968 14.4089 6.59112 13.2403 5.09619 12.8132L2.25 12L5.09619 11.1868C6.59113 10.7597 7.75968 9.59112 8.1868 8.09619L9 5.25L9.8132 8.09619C10.2403 9.59113 11.4089 10.7597 12.9038 11.1868L15.75 12L12.9038 12.8132C11.4089 13.2403 10.2403 14.4089 9.8132 15.9038Z"  stroke-width="1.5" stroke-linecap="round" stroke-linejoin="round"/>
<path d="M18.2589 8.71454L18 9.75L17.7411 8.71454C17.4388 7.50533 16.4947 6.56117 15.2855 6.25887L14.25 6L15.2855 5.74113C16.4947 5.43883 17.4388 4.49467 17.7411 3.28546L18 2.25L18.2589 3.28546C18.5612 4.49467 19.5053 5.43883 20.7145 5.74113L21.75 6L20.7145 6.25887C19.5053 6.56117 18.5612 7.50533 18.2589 8.71454Z"  stroke-width="1.5" stroke-linecap="round" stroke-linejoin="round"/>
<path d="M16.8942 20.5673L16.5 21.75L16.1058 20.5673C15.8818 19.8954 15.3546 19.3682 14.6827 19.1442L13.5 18.75L14.6827 18.3558C15.3546 18.1318 15.8818 17.6046 16.1058 16.9327L16.5 15.75L16.8942 16.9327C17.1182 17.6046 17.6454 18.1318 18.3173 18.3558L19.5 18.75L18.3173 19.1442C17.6454 19.3682 17.1182 19.8954 16.8942 20.5673Z"  stroke-width="1.5" stroke-linecap="round" stroke-linejoin="round"/>
</svg>

<svg xmlns="http://www.w3.org/2000/svg" fill="none" viewBox="0 0 24 24" stroke-width="1.5" stroke="currentColor" aria-hidden="true" data-slot="icon">
  <path stroke-linecap="round" stroke-linejoin="round" d="M9.813 15.904 9 18.75l-.813-2.846a4.5 4.5 0 0 0-3.09-3.09L2.25 12l2.846-.813a4.5 4.5 0 0 0 3.09-3.09L9 5.25l.813 2.846a4.5 4.5 0 0 0 3.09 3.09L15.75 12l-2.846.813a4.5 4.5 0 0 0-3.09 3.09ZM18.259 8.715 18 9.75l-.259-1.035a3.375 3.375 0 0 0-2.455-2.456L14.25 6l1.036-.259a3.375 3.375 0 0 0 2.455-2.456L18 2.25l.259 1.035a3.375 3.375 0 0 0 2.456 2.456L21.75 6l-1.035.259a3.375 3.375 0 0 0-2.456 2.456ZM16.894 20.567 16.5 21.75l-.394-1.183a2.25 2.25 0 0 0-1.423-1.423L13.5 18.75l1.183-.394a2.25 2.25 0 0 0 1.423-1.423l.394-1.183.394 1.183a2.25 2.25 0 0 0 1.423 1.423l1.183.394-1.183.394a2.25 2.25 0 0 0-1.423 1.423Z"/>
</svg>
